src/assets/icons/logo-lacco.svg

<?xml version="1.0" encoding="utf-8"?>
<!-- Generator: Adobe Illustrator 28.4.1, SVG Export Plug-In . SVG Version: 6.00 Build 0)  -->
<svg version="1.1" id="Lacco" xmlns="http://www.w3.org/2000/svg" xmlns:xlink="http://www.w3.org/1999/xlink" x="0px" y="0px"
	 viewBox="0 0 3000 3000" style="enable-background:new 0 0 3000 3000;" xml:space="preserve">
<g>
	<path d="M1190.29,1569.18c-21.49,16.03-46.2,30.02-62.1,50.65c-18.57,24.09-29.29,54.25-43.25,81.85
		c-1.09,2.15-0.97,4.92-2.12,11.44c43-16.06,83.93-31.35,124.7-46.57c1.7,4.18,0.93,2.27,2.63,6.45
		c-38.06,16.57-78.89,28.55-106.43,64.57c11.34-2.69,22.69-5.38,34.03-8.07c1.19,3.15,0.83,2.19,2.02,5.34
		c-23.95,12.77-47.93,25.49-71.85,38.33c-6.37,3.42-13.34,6.32-18.53,11.09c-3.84,3.53-7.94,10.37-6.93,14.51
		c0.85,3.46,8.76,6.68,13.87,7.29c9.67,1.14,19.56,0.33,29.58,3.02c-8.96,1.38-17.87,3.24-26.88,4.04
		c-25.78,2.28-29.91,7.93-24.79,25.45c-12.23,26.55-23.63,47.63-31.83,69.89c-15.61,42.38-29.28,85.48-44.04,128.19
		c-2.72,7.88-6.8,15.3-10.26,22.93c-2.65-0.77-5.29-1.54-7.94-2.31c1.49-10.4,2.8-20.82,4.52-31.18c1.73-10.4,4.04-20.69,5.77-31.09
		c4.56-27.36-9.69-40.53-37.01-34.3c-5.51,1.26-10.92,2.94-20.48,5.54c2.77-8.89,5.54-14.04,5.8-19.31
		c0.73-15.05,1.51-30.28-0.32-45.11c-0.4-3.22-12.1-7.99-17.8-7.09c-23.33,3.71-47.1,7.12-69.36,14.64
		c-95.43,32.26-190.48,65.66-285.33,99.58c-8.81,3.15-18.48,11.52-22.16,19.92c-10.24,23.42-17.3,48.21-26.09,72.28
		c-3.74,10.25-3.91,20.64-22.83,19.37c-11.68-0.79-25.38,16.38-36.74,27.01c-8.5,7.95-14.72,18.35-24.44,30.85
		c11.41-35.81,21.65-67.93,31.88-100.04c-2.08-1.59-2.09-1.59-4.17-3.18c-4.9,3.17-9.68,6.27-16.58,10.74
		c2.13-15.46,3.76-28.93,5.89-42.31c1.81-11.33-3.8-14.96-13.54-12.62c-11.49,2.76-22.49,7.63-34.01,10.2
		c-22.97,5.14-46.16,9.33-69.25,13.91c-1.29-3.87-0.88-2.65-2.17-6.52c5.83-2.82,12.04-5.05,17.41-8.58
		c18.4-12.1,38.29-22.73,54.22-37.57c15.68-14.61,13.02-18.87-7.96-24.19c-2.94-0.75-5.59-2.65-11.8-5.69
		c6.77-5.3,11.03-9.89,16.28-12.48c9.43-4.65,19.19-9.02,29.28-11.85c19.26-5.41,30.03-18,39.39-35.43
		c89.61-166.86,160.25-342.4,238.14-514.65c30.81-68.15,55.93-137.64,76.82-209.17c6.64-22.73,19.09-43.76,32.95-63.92
		c-1.38,8.07-2.76,16.13-4.14,24.2c2.96,1.04,2.23,0.78,5.19,1.82c19.68-35.49,39.36-70.99,61.81-111.5
		c2.21,15.48,3.54,24.83,4.88,34.18c2.9,0.41,2.66,0.37,5.56,0.78c6.23-13.97,11.66-28.36,18.84-41.81
		c23.22-43.47,45.63-87.48,71.26-129.51c15.72-25.79,36.75-48.33,57.21-74.68c-19.37,49.53-37.97,97.07-56.57,144.62
		c4.17,2.55,3.18,1.94,7.34,4.49c12.68-14.34,25.37-28.67,38.05-43.01c1.26,0.86,0.87,0.59,2.13,1.45
		c-9.77,19.12-19.49,38.26-29.31,57.35c-5.72,11.12-12.64,21.77-16.99,33.4c-2.59,6.92-4.69,18.59-1.03,22.46
		c12.06,12.74,4.64,22.76-1.2,33.36c-33.24,60.33-53.62,125.75-77.78,189.83c-18.28,48.47-45.26,93.62-67.47,140.67
		c-12.59,26.68-21.68,55.1-35.31,81.19c-23.07,44.13-47.98,87.33-73.05,130.37c-40.08,68.8-65.97,143.44-91.31,218.34
		c-1.69,5-2.06,13.08,0.8,16.21c2.61,2.86,10.76,2.21,15.94,0.93c66.4-16.37,133.1-31.76,198.84-50.51
		c24.21-6.91,46.97-20.51,68.87-33.62c52.01-31.12,103.74-62.81,154.14-96.44c13.19-8.8,21.39-25.06,31.73-38.13
		c-2.19-3.12-2.02-2.88-4.21-5.99c-12.91,4.37-25.82,8.74-38.73,13.11c-2.59-3.98-2.25-3.47-4.84-7.45
		c10.06-10.9,20.11-21.81,32.2-34.91c-15.92-7.48-29.91-14.05-43.9-20.62c0-3.76,0-4.28,0-8.04c31.19-14.6,62.6-28.77,93.46-44.05
		c10.2-5.05,22.36-10.9,27.84-19.91c29.76-48.89,58.65-98.37,86.02-148.64c29.29-53.79,56.57-108.68,84.73-163.08
		c1.21-2.34,3.34-4.54,3.64-6.97c4.89-39.9,30.44-67.13,61.24-86.88c20.15-12.91,36.34-28.62,50.63-47.61
		c1.93,1.18,3.87,2.35,5.81,3.53c-1.31,6.37-0.88,13.88-4.19,18.93c-24.78,37.75-32.01,81.14-44.82,123.29
		c-11.55,38.01-20.89,75.89-26.2,114.78c-4.44,32.48-6.84,65.48-6.81,98.24c0.02,22.92,6.16,26.09,28.87,21.66
		c12.76-2.49,25.11-7.14,38.87-11.18c-3.38,29.44-11.85,54.8-36.43,72.98c-3.26,2.41-2.93,11.68-1.86,17.33
		c0.91,4.82,5.26,8.99,8.09,13.45c-6.15,3.24-12.17,9-18.46,9.31c-34.25,1.68-35.81,1.25-35,35.82
		c1.05,45.24,4.83,90.42,7.63,138.88c4.37-4.68,7.65-7.2,9.59-10.51c2.3-3.92,4.38-8.4,4.94-12.84
		c10.92-85.75,57.95-158.18,87.35-237.09c7.9-21.2,18.71-40.32,39.3-52.86c7.38-4.49,12.72-13.27,17.45-21.04
		c41.09-67.45,92.59-126.41,149.39-180.68c13.88-13.26,32.36-22.3,49.86-31c15.23-7.57,59.16,18.3,61.32,35.25
		c0.63,4.94-2.2,11.01-5.05,15.55c-7.05,11.22-17.5,20.88-22.21,32.88c-18.27,46.56-34.82,93.8-52.09,140.76
		c-0.41,1.12-1.71,1.92-3.06,3.36c-8.07-3.6-13.01-22.31-25.75-6.7c-6.48,7.93-12.46,16.27-20.78,27.21
		c11.34-44.67,32.61-84.13,18.57-132.03c-7.97,5.86-14.46,9.13-18.95,14.18c-35.87,40.27-68.29,82.79-98.92,127.58
		c-39.95,58.43-54.55,124.75-77.28,188.85c-6,16.91-13.28,33.37-19,50.37c-2.96,8.79-4.64,17.96-5.23,27.21
		c-2.41,38.32-5.2,76.68-5.67,115.04c-0.24,19.41,2.37,39.34,7.05,58.2c5.7,22.96,32.43,35.75,56.07,33.22
		c52.15-5.59,92.1-30.69,125.74-69.96c39.18-45.72,73.79-94.07,101.13-147.87c9.8-19.29,16.49-45.81,49.03-38.49
		c2.2,0.49,7.29-8.09,9.73-13.09c13.58-27.82,26.55-55.93,40.17-83.72c4.24-8.64,7.93-17.62,21.82-15.61
		c4.2,0.61,11.82-8.96,14.76-15.3c11.62-25.09,20.78-51.38,33.36-75.95c6.6-12.9,18.27-23.24,27.85-34.57
		c7.16-8.46,16.09-15.77,21.76-25.09c38.29-62.93,86.3-118.09,138.07-169.77c18.65-18.62,43.4-31.14,62.71-44.6
		c12.62,4.4,22.19,8.06,31.95,11.09c29.38,9.11,31.17,25.27,13.41,49.51c-13.48,18.4-18.53,43.09-26.73,65.2
		c-11.21,30.2-21.75,60.64-32.87,90.87c-1.28,3.48-4.4,6.29-7.19,10.12c-37.32-25.33-32.79,20.83-51.52,27.68
		c15.42-41.66,34.36-83.76,23.51-136.43c-10.11,7.82-18.15,12.06-23.53,18.52c-34.05,40.86-67.45,81.76-96.89,126.72
		c-31.88,48.69-48.03,101.82-66.44,155.04c-9.68,27.98-19.5,55.91-29.1,83.91c-1.69,4.93-3.48,10.07-3.79,15.2
		c-2.88,47.85-6.64,95.71-7.43,143.6c-0.26,15.74,3.73,34.15,12.45,46.71c8.41,12.11,26.02,26.35,38.55,25.44
		c36.11-2.61,73.52-5.79,102.62-33.76c48.22-46.36,91.49-96.25,121.96-156.39c8.62-17.02,17.91-33.87,28.69-49.55
		c4.58-6.67,14.33-14.84,20.81-14.12c14.6,1.62,20.33-4.81,25.39-16.1c11.31-25.25,22.56-50.57,35.04-75.25
		c5.02-9.93,7.96-26.03,26.75-17.32c2.11,0.98,8.55-4.82,11.49-8.62c22.55-29.14,45.02-58.36,66.95-87.97
		c25.08-33.86,50.74-67.38,73.98-102.49c21.32-32.21,51.84-51.09,85.26-67.06c20.99-10.03,36.68-22.72,40.2-48.84
		c4.09-30.33,31.48-37.9,55.53-46.83c34.38-12.76,48.11-3.48,74.28,21.44c35.76,34.04,16.21,70.87,14.32,107.04
		c-0.79,15.23-6.16,30.2-9.24,45.33c-11.91,58.56-23.86,117.12-35.48,175.74c-2.17,10.93-4.48,22.22-3.97,33.22
		c1.68,36.27-9.02,68.18-28.11,98.76c-11.05,17.69-17.32,38.31-26.58,57.2c-5.91,12.05-13.05,23.55-20.17,34.95
		c-29.66,47.51-44.7,105.04-94.82,138.58c-2.69,1.8-5.51,4.14-6.98,6.91c-20.39,38.49-57.5,58.9-90.33,83.94
		c-14.19,10.83-28.58,19.01-47.81,20.58c-16.56,1.35-32.75,9.51-48.68,15.73c-17.44,6.8-26.66-2.9-35.22-15.4
		c-2.75-4.02-5.11-9.54-9.04-11.32c-44.65-20.29-55.41-60.3-56.3-102.95c-0.73-34.62,5.16-69.39,8.23-104.08
		c0.62-6.98,1.8-13.92,3.05-23.36c-5,1.78-8.13,1.88-9.18,3.41c-25.76,37.4-51.2,75.02-76.91,112.46
		c-16.62,24.2-34.19,47.78-50.24,72.35c-19.18,29.35-49.91,26.98-78.63,30.28c-9.68,1.11-19.61-0.12-29.32,0.8
		c-83.67,7.94-158.91-55.92-170.33-146.82c-3.42-27.22-1.61-55.09-2.26-82.65c-0.13-5.48-0.57-10.94-0.87-16.42
		c-3.05-0.83-2.94-0.8-5.99-1.62c-12.16,18.58-24.36,37.14-36.48,55.74c-8.61,13.22-17.1,26.51-25.67,39.75
		c-19.62,30.31-38.06,61.48-59.31,90.6c-13.45,18.43-28.55,38.16-47.6,49.23c-16.49,9.57-39.58,7.92-59.8,10.84
		c-4.44,0.64-9.24-1.14-13.67-0.47c-60.3,9.1-108.21-12.88-147.09-58.02c-1.9-2.21-4.67-3.67-8.11-6.3v95.7
		c-12.17-25.92-22.14-47.13-32.81-69.86c-25.44,12.57-26.93-13.49-38.33-26.02c-6.38,7-10.98,12.04-18.44,20.22
		c-2.63-8.01-5.35-13.29-6-18.82c-2.08-17.64-3.01-35.42-5.11-53.06c-2.66-22.37-10.19-29.17-34.49-28.86
		c2.85-23.47,4.92-46.64,8.61-69.53c6.29-38.94,15.72-77.48,19.9-116.62c4.17-39.04-3.79-57.89-40.76-54.14
		c-5.19,0.53-10.67-1.88-16.02-2.93l-4.47-7.56c5.98-3.58,11.97-7.17,17.97-10.73c13.15,1.55,22.35-3.23,29.14-18.06
		 M2437.18,1798.49c2.22,0.7,4.44,1.39,6.66,2.09c15.44-24.95,32.28-49.15,46.05-74.98c41.42-77.68,71.55-159.76,92.98-245.15
		c9.9-39.47,22.64-78.28,31.23-118.01c4.81-22.25,4.86-45.76,5-68.72c0.12-18.69-2.11-37.5-4.68-56.07
		c-1.51-10.93-9.5-11.67-17.76-6.35c-47.97,30.88-86.87,71.18-122.13,117.56c16.82,7.51,16.54,17.1,4.47,28.45
		c-48.72,45.81-88.84,98.16-125.44,154.3c-62.18,95.37-102.97,198.3-120.53,310.3c-5.81,37.05,6.3,70.49,34.57,96.48
		c4.41,4.05,12.03,8.55,16.95,7.45c27.27-6.14,52.11-15.11,68.37-41.97c24.19-39.96,51.77-77.88,77.98-116.61
		c0.95-1.4,2.75-2.23,4-3.2C2435.71,1789.14,2436.45,1793.82,2437.18,1798.49z M1261.54,1386.67c-2.28-0.51-4.56-1.03-6.85-1.54
		c-10.14,18.67-20.63,37.17-30.3,56.08c-7.18,14.04-25.72,26.77,6.73,39.36c17.63,6.84,25.92,3.75,31.12-7.31
		C1275.69,1444.65,1270.59,1415.25,1261.54,1386.67z M967.11,1755.8c26.53,8.93,45.08-6.93,46.5-37.35
		C996.03,1732.58,981.57,1744.19,967.11,1755.8z"/>
</g>
</svg>

<?xml version="1.0" encoding="UTF-8" standalone="no"?>
<!DOCTYPE svg PUBLIC "-//W3C//DTD SVG 1.1//EN" "http://www.w3.org/Graphics/SVG/1.1/DTD/svg11.dtd">
<svg width="100%" height="100%" viewBox="0 0 3000 3000" version="1.1" xmlns="http://www.w3.org/2000/svg" xmlns:xlink="http://www.w3.org/1999/xlink" xml:space="preserve" xmlns:serif="http://www.serif.com/" style="fill-rule:evenodd;clip-rule:evenodd;stroke-linejoin:round;stroke-miterlimit:2;">
    <g transform="matrix(1.2529,0,0,1.2529,-365.534,-383.667)">
        <path d="M1190.29,1569.18C1168.8,1585.21 1144.09,1599.2 1128.19,1619.83C1109.62,1643.92 1098.9,1674.08 1084.94,1701.68C1083.85,1703.83 1083.97,1706.6 1082.82,1713.12C1125.82,1697.06 1166.75,1681.77 1207.52,1666.55C1209.22,1670.73 1208.45,1668.82 1210.15,1673C1172.09,1689.57 1131.26,1701.55 1103.72,1737.57C1115.06,1734.88 1126.41,1732.19 1137.75,1729.5C1138.94,1732.65 1138.58,1731.69 1139.77,1734.84C1115.82,1747.61 1091.84,1760.33 1067.92,1773.17C1061.55,1776.59 1054.58,1779.49 1049.39,1784.26C1045.55,1787.79 1041.45,1794.63 1042.46,1798.77C1043.31,1802.23 1051.22,1805.45 1056.33,1806.06C1066,1807.2 1075.89,1806.39 1085.91,1809.08C1076.95,1810.46 1068.04,1812.32 1059.03,1813.12C1033.25,1815.4 1029.12,1821.05 1034.24,1838.57C1022.01,1865.12 1010.61,1886.2 1002.41,1908.46C986.8,1950.84 973.13,1993.94 958.37,2036.65C955.65,2044.53 951.57,2051.95 948.11,2059.58C945.46,2058.81 942.82,2058.04 940.17,2057.27C941.66,2046.87 942.97,2036.45 944.69,2026.09C946.42,2015.69 948.73,2005.4 950.46,1995C955.02,1967.64 940.77,1954.47 913.45,1960.7C907.94,1961.96 902.53,1963.64 892.97,1966.24C895.74,1957.35 898.51,1952.2 898.77,1946.93C899.5,1931.88 900.28,1916.65 898.45,1901.82C898.05,1898.6 886.35,1893.83 880.65,1894.73C857.32,1898.44 833.55,1901.85 811.29,1909.37C715.86,1941.63 620.81,1975.03 525.96,2008.95C517.15,2012.1 507.48,2020.47 503.8,2028.87C493.56,2052.29 486.5,2077.08 477.71,2101.15C473.97,2111.4 473.8,2121.79 454.88,2120.52C443.2,2119.73 429.5,2136.9 418.14,2147.53C409.64,2155.48 403.42,2165.88 393.7,2178.38C405.11,2142.57 415.35,2110.45 425.58,2078.34C423.5,2076.75 423.49,2076.75 421.41,2075.16C416.51,2078.33 411.73,2081.43 404.83,2085.9C406.96,2070.44 408.59,2056.97 410.72,2043.59C412.53,2032.26 406.92,2028.63 397.18,2030.97C385.69,2033.73 374.69,2038.6 363.17,2041.17C340.2,2046.31 317.01,2050.5 293.92,2055.08C292.63,2051.21 293.04,2052.43 291.75,2048.56C297.58,2045.74 303.79,2043.51 309.16,2039.98C327.56,2027.88 347.45,2017.25 363.38,2002.41C379.06,1987.8 376.4,1983.54 355.42,1978.22C352.48,1977.47 349.83,1975.57 343.62,1972.53C350.39,1967.23 354.65,1962.64 359.9,1960.05C369.33,1955.4 379.09,1951.03 389.18,1948.2C408.44,1942.79 419.21,1930.2 428.57,1912.77C518.18,1745.91 588.82,1570.37 666.71,1398.12C697.52,1329.97 722.64,1260.48 743.53,1188.95C750.17,1166.22 762.62,1145.19 776.48,1125.03C775.1,1133.1 773.72,1141.16 772.34,1149.23C775.3,1150.27 774.57,1150.01 777.53,1151.05C797.21,1115.56 816.89,1080.06 839.34,1039.55C841.55,1055.03 842.88,1064.38 844.22,1073.73C847.12,1074.14 846.88,1074.1 849.78,1074.51C856.01,1060.54 861.44,1046.15 868.62,1032.7C891.84,989.23 914.25,945.22 939.88,903.19C955.6,877.4 976.63,854.86 997.09,828.51C977.72,878.04 959.12,925.58 940.52,973.13C944.69,975.68 943.7,975.07 947.86,977.62C960.54,963.28 973.23,948.95 985.91,934.61C987.17,935.47 986.78,935.2 988.04,936.06C978.27,955.18 968.55,974.32 958.73,993.41C953.01,1004.53 946.09,1015.18 941.74,1026.81C939.15,1033.73 937.05,1045.4 940.71,1049.27C952.77,1062.01 945.35,1072.03 939.51,1082.63C906.27,1142.96 885.89,1208.38 861.73,1272.46C843.45,1320.93 816.47,1366.08 794.26,1413.13C781.67,1439.81 772.58,1468.23 758.95,1494.32C735.88,1538.45 710.97,1581.65 685.9,1624.69C645.82,1693.49 619.93,1768.13 594.59,1843.03C592.9,1848.03 592.53,1856.11 595.39,1859.24C598,1862.1 606.15,1861.45 611.33,1860.17C677.73,1843.8 744.43,1828.41 810.17,1809.66C834.38,1802.75 857.14,1789.15 879.04,1776.04C931.05,1744.92 982.78,1713.23 1033.18,1679.6C1046.37,1670.8 1054.57,1654.54 1064.91,1641.47C1062.72,1638.35 1062.89,1638.59 1060.7,1635.48C1047.79,1639.85 1034.88,1644.22 1021.97,1648.59C1019.38,1644.61 1019.72,1645.12 1017.13,1641.14C1027.19,1630.24 1037.24,1619.33 1049.33,1606.23C1033.41,1598.75 1019.42,1592.18 1005.43,1585.61L1005.43,1577.57C1036.62,1562.97 1068.03,1548.8 1098.89,1533.52C1109.09,1528.47 1121.25,1522.62 1126.73,1513.61C1156.49,1464.72 1185.38,1415.24 1212.75,1364.97C1242.04,1311.18 1269.32,1256.29 1297.48,1201.89C1298.69,1199.55 1300.82,1197.35 1301.12,1194.92C1306.01,1155.02 1331.56,1127.79 1362.36,1108.04C1382.51,1095.13 1398.7,1079.42 1412.99,1060.43C1414.92,1061.61 1416.86,1062.78 1418.8,1063.96C1417.49,1070.33 1417.92,1077.84 1414.61,1082.89C1389.83,1120.64 1382.6,1164.03 1369.79,1206.18C1358.24,1244.19 1348.9,1282.07 1343.59,1320.96C1339.15,1353.44 1336.75,1386.44 1336.78,1419.2C1336.8,1442.12 1342.94,1445.29 1365.65,1440.86C1378.41,1438.37 1390.76,1433.72 1404.52,1429.68C1401.14,1459.12 1392.67,1484.48 1368.09,1502.66C1364.83,1505.07 1365.16,1514.34 1366.23,1519.99C1367.14,1524.81 1371.49,1528.98 1374.32,1533.44C1368.17,1536.68 1362.15,1542.44 1355.86,1542.75C1321.61,1544.43 1320.05,1544 1320.86,1578.57C1321.91,1623.81 1325.69,1668.99 1328.49,1717.45C1332.86,1712.77 1336.14,1710.25 1338.08,1706.94C1340.38,1703.02 1342.46,1698.54 1343.02,1694.1C1353.94,1608.35 1400.97,1535.92 1430.37,1457.01C1438.27,1435.81 1449.08,1416.69 1469.67,1404.15C1477.05,1399.66 1482.39,1390.88 1487.12,1383.11C1528.21,1315.66 1579.71,1256.7 1636.51,1202.43C1650.39,1189.17 1668.87,1180.13 1686.37,1171.43C1701.6,1163.86 1745.53,1189.73 1747.69,1206.68C1748.32,1211.62 1745.49,1217.69 1742.64,1222.23C1735.59,1233.45 1725.14,1243.11 1720.43,1255.11C1702.16,1301.67 1685.61,1348.91 1668.34,1395.87C1667.93,1396.99 1666.63,1397.79 1665.28,1399.23C1657.21,1395.63 1652.27,1376.92 1639.53,1392.53C1633.05,1400.46 1627.07,1408.8 1618.75,1419.74C1630.09,1375.07 1651.36,1335.61 1637.32,1287.71C1629.35,1293.57 1622.86,1296.84 1618.37,1301.89C1582.5,1342.16 1550.08,1384.68 1519.45,1429.47C1479.5,1487.9 1464.9,1554.22 1442.17,1618.32C1436.17,1635.23 1428.89,1651.69 1423.17,1668.69C1420.21,1677.48 1418.53,1686.65 1417.94,1695.9C1415.53,1734.22 1412.74,1772.58 1412.27,1810.94C1412.03,1830.35 1414.64,1850.28 1419.32,1869.14C1425.02,1892.1 1451.75,1904.89 1475.39,1902.36C1527.54,1896.77 1567.49,1871.67 1601.13,1832.4C1640.31,1786.68 1674.92,1738.33 1702.26,1684.53C1712.06,1665.24 1718.75,1638.72 1751.29,1646.04C1753.49,1646.53 1758.58,1637.95 1761.02,1632.95C1774.6,1605.13 1787.57,1577.02 1801.19,1549.23C1805.43,1540.59 1809.12,1531.61 1823.01,1533.62C1827.21,1534.23 1834.83,1524.66 1837.77,1518.32C1849.39,1493.23 1858.55,1466.94 1871.13,1442.37C1877.73,1429.47 1889.4,1419.13 1898.98,1407.8C1906.14,1399.34 1915.07,1392.03 1920.74,1382.71C1959.03,1319.78 2007.04,1264.62 2058.81,1212.94C2077.46,1194.32 2102.21,1181.8 2121.52,1168.34C2134.14,1172.74 2143.71,1176.4 2153.47,1179.43C2182.85,1188.54 2184.64,1204.7 2166.88,1228.94C2153.4,1247.34 2148.35,1272.03 2140.15,1294.14C2128.94,1324.34 2118.4,1354.78 2107.28,1385.01C2106,1388.49 2102.88,1391.3 2100.09,1395.13C2062.77,1369.8 2067.3,1415.96 2048.57,1422.81C2063.99,1381.15 2082.93,1339.05 2072.08,1286.38C2061.97,1294.2 2053.93,1298.44 2048.55,1304.9C2014.5,1345.76 1981.1,1386.66 1951.66,1431.62C1919.78,1480.31 1903.63,1533.44 1885.22,1586.66C1875.54,1614.64 1865.72,1642.57 1856.12,1670.57C1854.43,1675.5 1852.64,1680.64 1852.33,1685.77C1849.45,1733.62 1845.69,1781.48 1844.9,1829.37C1844.64,1845.11 1848.63,1863.52 1857.35,1876.08C1865.76,1888.19 1883.37,1902.43 1895.9,1901.52C1932.01,1898.91 1969.42,1895.73 1998.52,1867.76C2046.74,1821.4 2090.01,1771.51 2120.48,1711.37C2129.1,1694.35 2138.39,1677.5 2149.17,1661.82C2153.75,1655.15 2163.5,1646.98 2169.98,1647.7C2184.58,1649.32 2190.31,1642.89 2195.37,1631.6C2206.68,1606.35 2217.93,1581.03 2230.41,1556.35C2235.43,1546.42 2238.37,1530.32 2257.16,1539.03C2259.27,1540.01 2265.71,1534.21 2268.65,1530.41C2291.2,1501.27 2313.67,1472.05 2335.6,1442.44C2360.68,1408.58 2386.34,1375.06 2409.58,1339.95C2430.9,1307.74 2461.42,1288.86 2494.84,1272.89C2515.83,1262.86 2531.52,1250.17 2535.04,1224.05C2539.13,1193.72 2566.52,1186.15 2590.57,1177.22C2624.95,1164.46 2638.68,1173.74 2664.85,1198.66C2700.61,1232.7 2681.06,1269.53 2679.17,1305.7C2678.38,1320.93 2673.01,1335.9 2669.93,1351.03C2658.02,1409.59 2646.07,1468.15 2634.45,1526.77C2632.28,1537.7 2629.97,1548.99 2630.48,1559.99C2632.16,1596.26 2621.46,1628.17 2602.37,1658.75C2591.32,1676.44 2585.05,1697.06 2575.79,1715.95C2569.88,1728 2562.74,1739.5 2555.62,1750.9C2525.96,1798.41 2510.92,1855.94 2460.8,1889.48C2458.11,1891.28 2455.29,1893.62 2453.82,1896.39C2433.43,1934.88 2396.32,1955.29 2363.49,1980.33C2349.3,1991.16 2334.91,1999.34 2315.68,2000.91C2299.12,2002.26 2282.93,2010.42 2267,2016.64C2249.56,2023.44 2240.34,2013.74 2231.78,2001.24C2229.03,1997.22 2226.67,1991.7 2222.74,1989.92C2178.09,1969.63 2167.33,1929.62 2166.44,1886.97C2165.71,1852.35 2171.6,1817.58 2174.67,1782.89C2175.29,1775.91 2176.47,1768.97 2177.72,1759.53C2172.72,1761.31 2169.59,1761.41 2168.54,1762.94C2142.78,1800.34 2117.34,1837.96 2091.63,1875.4C2075.01,1899.6 2057.44,1923.18 2041.39,1947.75C2022.21,1977.1 1991.48,1974.73 1962.76,1978.03C1953.08,1979.14 1943.15,1977.91 1933.44,1978.83C1849.77,1986.77 1774.53,1922.91 1763.11,1832.01C1759.69,1804.79 1761.5,1776.92 1760.85,1749.36C1760.72,1743.88 1760.28,1738.42 1759.98,1732.94C1756.93,1732.11 1757.04,1732.14 1753.99,1731.32C1741.83,1749.9 1729.63,1768.46 1717.51,1787.06C1708.9,1800.28 1700.41,1813.57 1691.84,1826.81C1672.22,1857.12 1653.78,1888.29 1632.53,1917.41C1619.08,1935.84 1603.98,1955.57 1584.93,1966.64C1568.44,1976.21 1545.35,1974.56 1525.13,1977.48C1520.69,1978.12 1515.89,1976.34 1511.46,1977.01C1451.16,1986.11 1403.25,1964.13 1364.37,1918.99C1362.47,1916.78 1359.7,1915.32 1356.26,1912.69L1356.26,2008.39C1344.09,1982.47 1334.12,1961.26 1323.45,1938.53C1298.01,1951.1 1296.52,1925.04 1285.12,1912.51C1278.74,1919.51 1274.14,1924.55 1266.68,1932.73C1264.05,1924.72 1261.33,1919.44 1260.68,1913.91C1258.6,1896.27 1257.67,1878.49 1255.57,1860.85C1252.91,1838.48 1245.38,1831.68 1221.08,1831.99C1223.93,1808.52 1226,1785.35 1229.69,1762.46C1235.98,1723.52 1245.41,1684.98 1249.59,1645.84C1253.76,1606.8 1245.8,1587.95 1208.83,1591.7C1203.64,1592.23 1198.16,1589.82 1192.81,1588.77L1188.34,1581.21C1194.32,1577.63 1200.31,1574.04 1206.31,1570.48C1219.46,1572.03 1228.66,1567.25 1235.45,1552.42M2437.18,1798.49C2439.4,1799.19 2441.62,1799.88 2443.84,1800.58C2459.28,1775.63 2476.12,1751.43 2489.89,1725.6C2531.31,1647.92 2561.44,1565.84 2582.87,1480.45C2592.77,1440.98 2605.51,1402.17 2614.1,1362.44C2618.91,1340.19 2618.96,1316.68 2619.1,1293.72C2619.22,1275.03 2616.99,1256.22 2614.42,1237.65C2612.91,1226.72 2604.92,1225.98 2596.66,1231.3C2548.69,1262.18 2509.79,1302.48 2474.53,1348.86C2491.35,1356.37 2491.07,1365.96 2479,1377.31C2430.28,1423.12 2390.16,1475.47 2353.56,1531.61C2291.38,1626.98 2250.59,1729.91 2233.03,1841.91C2227.22,1878.96 2239.33,1912.4 2267.6,1938.39C2272.01,1942.44 2279.63,1946.94 2284.55,1945.84C2311.82,1939.7 2336.66,1930.73 2352.92,1903.87C2377.11,1863.91 2404.69,1825.99 2430.9,1787.26C2431.85,1785.86 2433.65,1785.03 2434.9,1784.06C2435.71,1789.14 2436.45,1793.82 2437.18,1798.49ZM1261.54,1386.67C1259.26,1386.16 1256.98,1385.64 1254.69,1385.13C1244.55,1403.8 1234.06,1422.3 1224.39,1441.21C1217.21,1455.25 1198.67,1467.98 1231.12,1480.57C1248.75,1487.41 1257.04,1484.32 1262.24,1473.26C1275.69,1444.65 1270.59,1415.25 1261.54,1386.67ZM967.11,1755.8C993.64,1764.73 1012.19,1748.87 1013.61,1718.45C996.03,1732.58 981.57,1744.19 967.11,1755.8Z" style="fill-rule:nonzero;"/>
    </g>
</svg>
